X: 39820
T: They Stole My Wife's Plough
R: polka
M: 2/4
K: Gmajor
FG A2|AG c2|cG BG|A2 AG|c/c/c cG|B/B/B BG|AB AG|A2AG:|
FG A2|AG Bc|cG B/B/G|A2 AG|c/c/c cG|B/B/B BG|AB AG|A2 AA||
K:F
M:3/4
{DA}f3 A fg|e4 AA|{[G,D]}[B3g3] A ga|f2 d2 AA|ef2 A fg|ge3 AA|
g3 f ga|f2 d2 AA|f3 A fg|e4 AA|^gf fe e^c|^cB BA A^F||

